svgs/classysharkexodus.svg

<svg xmlns="http://www.w3.org/2000/svg" viewBox="0 0 192 192"><path d="M165.137 25.394a330.352 330.352 0 0 0-35.376.815A58.716 58.716 0 0 0 97.534 16.5c-23.352 0-32.718 5.059-35.581 7.099a2.817 2.817 0 0 0-1.186 2.039 36.648 36.648 0 0 0 3.226 20.726 36.749 36.749 0 0 0 14.074 15.583c7.484 4.651 17.381 8.159 19.876 16.318-12.269 6.65-35.008 19.012-35.008 20.725 0 1.713 16.359.734 28.342 2.285a102.071 102.071 0 0 1-23.393 27.496 2.747 2.747 0 0 1-3.845-.53l-.286-.367C52.588 105.436 25.8 102.213 25.31 104.538c-.941 4.937 24.293 9.343 29.118 35.452 5.522 30.271-1.595 33.412 1.227 35.33 2.822 1.917 10.306-11.015 11.697-29.21a2.823 2.823 0 0 1 2.127-2.489c32.226-7.384 54.515-20.969 68.052-35.656 5.971 8.159 13.701 28.761 15.01 28.761 2.004 0-1.268-33.004-3.886-44.182a45.248 45.248 0 0 0 5.849-20.398 58.428 58.428 0 0 0-4.581-22.071 197.547 197.547 0 0 1 16.359-22.234 1.504 1.504 0 0 0 0-2.121 1.639 1.639 0 0 0-1.145-.326Zm-59.424 23.253c-6.298-1.101-21.389-3.1-24.538-.897a4.735 4.735 0 0 0-2.004 5.14.814.814 0 0 1-.695.939.743.743 0 0 1-.654 0c-3.599-2.611-8.18-7.507-3.886-13.055 4.295-5.549 23.189-1.754 32.432 6.405a.818.818 0 0 1 .45 1.101.864.864 0 0 1-1.105.49Zm.45-18.032c-2.167-1.264-3.312-1.591-2.045-4.079a4.096 4.096 0 0 1 5.235-1.673l.736.49a4.083 4.083 0 0 1 2.499 3.366 4.072 4.072 0 0 1-.372 2.141c.007.109.007.218 0 .327-2.004 3.182-3.844.652-6.053-.572Z" fill="none" stroke="#000" stroke-width="6" stroke-linecap="round" stroke-linejoin="round"/></svg>

<svg
    xmlns="http://www.w3.org/2000/svg"
    viewBox="0 0 192 192"
    id="vector">
    <path
        id="path"
        d="M 165.137 25.394 C 153.339 25.033 141.53 25.306 129.761 26.209 C 120.203 19.899 108.996 16.523 97.534 16.5 C 74.182 16.5 64.816 21.559 61.953 23.599 C 61.62 23.833 61.341 24.136 61.136 24.489 C 60.931 24.841 60.806 25.233 60.767 25.638 C 59.8 32.712 60.921 39.916 63.993 46.364 C 67.065 52.812 71.957 58.229 78.067 61.947 C 85.551 66.598 95.448 70.106 97.943 78.265 C 85.674 84.915 62.935 97.277 62.935 98.99 C 62.935 100.703 79.294 99.724 91.277 101.275 C 85.178 111.753 77.257 121.065 67.884 128.771 C 67.5 129.062 67.046 129.247 66.568 129.306 C 66.09 129.366 65.604 129.299 65.16 129.112 C 64.716 128.925 64.329 128.625 64.039 128.241 L 63.753 127.874 C 52.588 105.436 25.8 102.213 25.31 104.538 C 24.369 109.475 49.603 113.881 54.428 139.99 C 59.95 170.261 52.833 173.402 55.655 175.32 C 58.477 177.237 65.961 164.305 67.352 146.11 C 67.402 145.526 67.635 144.972 68.016 144.526 C 68.397 144.08 68.909 143.763 69.479 143.621 C 101.705 136.237 123.994 122.652 137.531 107.965 C 143.502 116.124 151.232 136.726 152.541 136.726 C 154.545 136.726 151.273 103.722 148.655 92.544 C 152.195 86.302 154.199 79.311 154.504 72.146 C 154.424 64.563 152.869 57.067 149.923 50.075 C 154.85 42.293 160.316 34.863 166.282 27.841 C 166.562 27.559 166.719 27.178 166.719 26.781 C 166.719 26.384 166.562 26.002 166.282 25.72 C 165.955 25.472 165.546 25.355 165.137 25.394 Z M 105.713 48.647 C 99.415 47.546 84.324 45.547 81.175 47.75 C 80.345 48.29 79.704 49.077 79.345 49.999 C 78.985 50.921 78.925 51.932 79.171 52.89 C 79.194 53.034 79.179 53.181 79.126 53.316 C 79.073 53.452 78.985 53.57 78.871 53.66 C 78.757 53.751 78.62 53.809 78.476 53.829 C 78.374 53.879 78.262 53.905 78.149 53.905 C 78.035 53.905 77.923 53.879 77.822 53.829 C 74.223 51.218 69.642 46.322 73.936 40.774 C 78.231 35.225 97.125 39.02 106.368 47.179 C 106.507 47.232 106.629 47.323 106.721 47.441 C 106.812 47.558 106.87 47.699 106.887 47.847 C 106.904 47.995 106.88 48.145 106.818 48.28 C 106.735 48.49 106.573 48.66 106.366 48.752 C 106.16 48.843 105.925 48.85 105.713 48.77 Z M 106.163 30.615 C 103.996 29.351 102.851 29.024 104.118 26.536 C 104.627 25.658 105.445 25.001 106.412 24.691 C 107.38 24.382 108.429 24.444 109.353 24.863 L 110.089 25.353 C 110.772 25.636 111.365 26.099 111.805 26.692 C 112.245 27.285 112.515 27.985 112.588 28.719 C 112.66 29.453 112.532 30.193 112.216 30.86 C 112.223 30.969 112.223 31.078 112.216 31.187 C 110.212 34.369 108.372 31.839 106.163 30.615 Z"
        fill="none"
        stroke="#000000"
        stroke-width="6"
        stroke-linecap="round"
        stroke-linejoin="round"/>
</svg>
